/* XPM */
static char *gtkhx_icon_xpm[] = {
"16 16 12 1",
"0	c None",
"1	c #110000",
"2	c #EE0000",
"3	c #770000",
"4	c #BB0000",
"5	c #094500",
"6	c #06CF00",
"7	c #00DA00",
"8	c #004900",
"9	c #09CF00",
"A	c #064500",
"B	c #00CF00",
"0000011000000000",
"0000121000000000",
"0001231001111100",
"0012431001224100",
"0012431001243100",
"0012431001243100",
"0012431111243100",
"0012422222443100",
"0012444444443100",
"0012433333443100",
"0012431111243100",
"0012431001256178",
"001243100129AB87",
"001233100123B870",
"00111110013B8787",
"0000000001187078"
};
