/* XPM */
static char *news_reply[] = {
/* columns rows colors chars-per-pixel */
"16 16 8 1 ",
"  c None",
". c black",
"X c #996600",
"o c #FF6666",
"O c #CC9900",
"+ c #FFCC66",
"@ c #FF9999",
"# c #FFFF99",
/* pixels */
"                ",
"           ..   ",
"          .@@.  ",
"         .@@oo. ",
"         ..oo.  ",
"        .#+...  ",
"        .#+O.   ",
"       .#+OO.   ",
"       .#+O.    ",
"      .#+OO.    ",
"      .#+O.     ",
"      ...O.     ",
"      .XX.      ",
"      .X.       ",
"  . . ..        ",
"                "
};
