/* XPM */
static char *newspost[] = {
/* columns rows colors chars-per-pixel */
"16 16 12 1 ",
"  c None",
". c black",
"X c #110000",
"o c #550000",
"O c #770000",
"+ c #333366",
"@ c #BB0000",
"# c #DD0000",
"$ c #888888",
"% c #AAAAAA",
"& c #FF99CC",
"* c white",
/* pixels */
"                ",
"    ........... ",
"    .*********. ",
"    .*********. ",
" .. ...*******. ",
".&#..&#.******. ",
".#@o@o@.$$****. ",
".@Oo@o@.++****. ",
".OO..@O.******. ",
" .. ...*******. ",
"    .****.****. ",
"   .****.%..X.  ",
"   .***.%%%%.   ",
"  .***.%%%..    ",
"  ........      ",
"                "
};
