/* XPM */
static char *preview[] = {
/* columns rows colors chars-per-pixel */
"16 16 8 1 ",
"  c None",
". c black",
"X c #BBBBBB",
"o c #9999FF",
"O c gray80",
"+ c #DDDDDD",
"@ c #EEEEEE",
"# c white",
/* pixels */
"   ..........   ",
"   .########..  ",
"   .#@@@@@@@.O. ",
"   .#@@....@....",
"   .#@.+@++.@@X.",
"   .#.+##@++.@X.",
"   .#.@#@+O+.@X.",
"   .#.+@+OXO.@X.",
"   .#.++OXX+.@X.",
"   .#@.++O+.@@X.",
"   ...@....@@@X.",
"   .o.@@@@@@@@X.",
"  .o.@@@@@@@@@X.",
" .o.#@@@@@@@@@X.",
".o..@XXXXXXXXXX.",
".. ............."
};
